X: 1
T: Running
M: 4/4
L: 1/8
V:1  name=""
V:2  name=""
V:3  name=""
V:4  name=""
V:5  name=""
V:6  name=""
V:7  name=""
V:8  name=""
V:9  name=""
V:10 name=""
V:11 name=""
V:12 name=""
V:13 name=""
Q:1/4=5
K:C
V:1
% SYNTH BASS
%%MIDI program 38
x/2x/2x/2x/2 x/2x/2x/2x/2 x/2x/2x/2x/2 x/2x/2x/2x/2| \
x/2x/2x/2x/2 x/2x/2x/2x/2 x/2x/2x/2x/2 x/2x/2x/2x/2| \
x/2x/2x/2x/2 x/2x/2x/2x/2 x/2x/2x/2x/2 x/2x/2x/2x/2| \
x/2x/2x/2x/2 x/2x/2x/2x/2 x/2x/2x/2x/2 x/2x/2x/2x/2|
V:2
% SAWTOOTH
%%MIDI program 81
x/2x/2x/2x/2 x/2x/2x/2x/2 x/2x/2x/2x/2 x/2x/2x/2x/2| \
x4 x/2x/2x/2x/2 x/2x/2x/2x/2| \
x/2x/2x/2x/2 x4 x/2x/2x/2x/2| \
x/2x/2x/2x/2 x/2x/2x/2x/2 
V:3
% CHARANG
%%MIDI program 84
x8| \
x/2x/2x/2e/2 x/2x/2x/2x/2 x4| \
x2 x/2x/2x/2e/2 x/2xx2x/2| \
x4 x/2x/2x/2e/2 x/2x
V:4
% CHARANG (Echo)
%%MIDI program 84
% CHARANG
x8| \
x/2x/2x/2e/2 x/2x/2x/2x/2 x4| \
x2 x/2x/2x/2e/2 x/2xx2x/2| \
x4 x/2x/2x/2e/2 x/2x
V:5
% SAWTOOTH
%%MIDI program 81
x2 
x/2x/2x/2x/2 x/2x/2x/2x/2 x/2x/2x/2x/2| \
x/2x/2x/2x/2 x/2x/2x/2x/2 x/2x/2x/2x/2 x/2x/2x/2x/2| \
x/2x/2x/2x/2 x/2x/2x/2x/2 x/2x/2x/2x/2 x/2x/2x/2x/2| \
x/2x/2x/2x/2 x/2x/2x/2x/2 x/2x/2x/2x/2 x/2
V:6
% SAWTOOTH (Echo)
%%MIDI program 81
% SAWTOOTH
x2 
x/2x/2x/2x/2 x/2x/2x/2x/2 x/2x/2x/2x/2| \
x/2x/2x/2x/2 x/2x/2x/2x/2 x/2x/2x/2x/2 x/2x/2x/2x/2| \
x/2x/2x/2x/2 x/2x/2x/2x/2 x/2x/2x/2x/2 x/2x/2x/2x/2| \
x/2x/2x/2x/2 x/2x/2x/2x/2 x/2x/2x/2x/2 x/2
V:7
% SQUARE
%%MIDI program 80
x3
x/2x/2 x/2x/2x/2x/2 xx/2x/2| \
x/2x/2x/2x/2 x/2x/2x/2x/2 xx/2x/2 x/2x/2x/2x/2| \
xx/2x/2 x/2x/2x/2x/2 x/2x/2x/2xx/2x/2x/2| \
x/2x/2x/2xx/2x/2x/2 x/2x/2x/2x/2 x/2x/2x/2
V:8
% STRING ENSEMBLE 2
%%MIDI program 49
D,2 [F/2D/2A,/2][A/2E/2C/2][F/2D/2A,/2][A/2E/2C/2] [F/2D/2A,/2][c/2A/2F/2E/2D/2C/2C/2A,/2][F/2F/2D/2D/2C/2A,/2][A/2E/2C/2] [F/2F/2D/2D/2^A,/2=A,/2][c/2A/2F/2E/2D/2C/2C/2A,/2][G/2F/2E/2D/2C/2A,/2][A/2E/2C/2]| \
[A/2F/2C/2][B/2G/2G/2E/2D/2B,/2][A/2F/2C/2][e/2d/2B/2G/2G/2E/2D/2B,/2] [A/2F/2C/2][e/2B/2B/2G/2G/2D/2][A/2F/2C/2][G/2E/2D/2B,/2G,/2G,/2E,/2] [^c/2A/2F/2E/2D/2=C/2A,/2A,/2][A/2E/2C/2][F/2D/2A,/2][A/2E/2C/2] [F/2D/2A,/2][c/2A/2F/2E/2D/2C/2C/2A,/2][F/2F/2D/2D/2C/2A,/2][A/2E/2C/2]| \
[F/2F/2D/2D/2^A,/2=A,/2][c/2A/2F/2E/2D/2C/2C/2A,/2][G/2F/2E/2D/2C/2A,/2][A/2E/2C/2] [A/2F/2C/2][B/2G/2G/2E/2D/2B,/2][A/2F/2C/2][e/2d/2B/2G/2G/2E/2D/2B,/2] [A/2F/2C/2][e/2B/2B/2G/2G/2D/2][A/2F/2C/2][G/2E/2D/2B,/2G,/2G,/2E,/2] [^c/2A/2F/2E/2D/2=C/2A,/2A,/2][A/2E/2C/2][F/2D/2A,/2][A/2E/2C/2]| \
[F/2D/2A,/2][c/2A/2F/2E/2D/2C/2C/2A,/2][F/2F/2D/2D/2C/2A,/2][A/2E/2C/2] [F/2F/2D/2D/2^A,/2=A,/2][c/2A/2F/2E/2D/2C/2C/2A,/2][G/2F/2E/2D/2C/2A,/2][A/2E/2C/2] [A/2F/2C/2][B/2G/2G/2E/2D/2B,/2][A/2F/2C/2][e/2d/2B/2G/2G/2E/2D/2B,/2] [A/2F/2C/2][e/2B/2B/2G/2G/2D/2][A/2F/2C/2][G/2E/2D/2B,/2G,/2G,/2E,/2]|
V:9
% STRING ENSEMBLE 2
%%MIDI program 49
x/2x/2x/2
V:10
%%MIDI channel 10
% PERCUSSION
%%MIDI program 24
x/2x/2x/2x/2 
V:11
% PERCUSSION
%%MIDI program 24
x
x/2x/2 x/2x/2x/2x/2 x/2x/2x/2x/2 x/2x/2x/2x/2| \
x/2x/2x/2x/2 x/2x/2x/2x/2 x/2x/2x/2x/2 x/2x/2x/2x/2| \
x/2x/2x/2x/2 x/2x/2x/2x/2 x/2x/2x/2x/2 x/2x/2x/2x/2| \
x/2x/2x/2x/2 x/2x/2x/2x/2 x/2x/2x/2x/2 x/2x/2x/2x/2|
V:12
% CRYSTAL
%%MIDI program 98
x8| \
a'''/2x/2 (3c'''/2d'''/2g'''/2  (3f'''/2g'''/2e''''/2[a'''/2f'''/2][e'''/2d'''/2] a'''/2x3x/2| \
x2 a'''/2x/2 (3c'''/2d'''/2g'''/2  (3f'''/2g'''/2e''''/2[a'''/2f'''/2][e'''/2d'''/2] a'''/2x3/2| \
x4 a'''/2x/2 (3c'''/2d'''/2g'''/2  (3f'''/2g'''/2e''''/2[a'''/2f'''/2][e'''/2d'''/2]|
V:13
% MELODIC TOM
%%MIDI program 117
% MELODIC TOM
x/2x/2x6x| \
x3x/2x/2 x4| \
x4 x3/2x/2 x2| \
x6 x3/2x/2|
